X: 5289
T: Brosna, The
R: slide
M: 12/8
K: Gmajor
|:GFE|D2 G G2 A BAB d2 B|A2 D FED A2 D FED|
D2 E G2 A BAB d2 B|A2 D FED G3:|
|:GBd|g3 efg f2 e d2 B|ccB A2 B c2 d e2 f|
fgf efg f2 e d2 B|c2 A F2 A G3:|

